X: 17731
T: Home To Ballycashin
R: jig
M: 6/8
K: Dmajor
|:~F3 ~G3|FED EFG|FAf ecA|~G3 EFG|
FAd GBd|FED EFG|FAf ecA|GFE D2z:|
|:~f3 dz B|Adf afd|~e2f gfe|efd cBA|
~f3 dFB|Adf afd|ez f gfe|1 dfe d2z:|2 dfe dAG||

